X:1
T:Jesus Paid It All
T:Jesus Paid It All
T:William Batchelder Bradbury
T:William Batchelder Bradbury, 1864
T:Public Domain Courtesy of the Cyber Hymnal™
C:William Batchelder Bradbury
Z:Public Domain
Z:Courtesy of the Cyber Hymnal™
%%score ( 1 2 ) ( 3 4 )
L:1/8
Q:1/4=100
M:6/8
K:G
V:1 treble 
V:2 treble 
V:3 bass 
V:4 bass 
V:1
 [GB]2 [GB] ([GB][FA])[GB] | [Ac]2 [Ac] [Ac]2 [GB] | [FA]2 [FA] [GB]2 [Bd] | [GB]6 | %4
w: 1.~No- thing ei- * ther|great or small, Re-|mains for me to|do;|
w: 2.~When He from * His|lof- ty throne Stooped|down to do and|die,|
w: 3.~Wea- ry, work- * ing,|plod- ding one! O,|where- fore toil you|so?|
w: 4.~Till to Je- * sus’|work you cling, A-|lone by sim- ple|faith,|
w: 5.~Cast your dead- * ly|“do- ing” down, Down,|all at Je- sus’|feet;|
 [GB]2 [GB] ([GB][FA])[GB] | [Ec]2 [Ec] !fermata![Ec]2 [EA] | [DG]2 [DG] [GB]2 [FA] | G6 || %8
w: Je- sus died * and|paid it all— Yes,|all the debt I|owe.|
w: Ev- ery- thing * was|ful- ly done; Yes,|“Fin- ished!” was His|cry.|
w: Cease your “do- * ing”:|All was done Yes,|ag- es long a-|go.|
w: “Do- ing” is * a|dead- ly thing, All|“do- ing” ends in|death.|
w: Stand in Him, * in|Him a- lone, All|glor- ious and com-|plete.|
"^Refrain" [GB]2 [GB] ([GB][FA])[GB] x | [Ac]6 | [FA]2 [FA] ([FA][GB])[Ac] | [Bd]6 | %12
w: ||||
w: ||||
w: Je- sus paid * it|all,|All the debt * I|owe;|
w: ||||
w: ||||
 [GB]2 [GB] ([GB][FA])[GB] | [Ec]2 [Ec] !fermata![Ec]2 [EA] | [DG]2 [DG] [GB]2 [FA] | G6 |] %16
w: ||||
w: ||||
w: Je- sus died, * and|paid it all— Yes,|all the debt I|owe.|
w: ||||
w: ||||
V:2
 x6 | x6 | x6 | x6 | x6 | x6 | x6 | G6 || x7 | x6 | x6 | x6 | x6 | x6 | x6 | G6 |] %16
V:3
 [G,D]2 [G,D] [G,D]2 [G,D] | [C,E]2 [C,E] [C,E]2 [D,D] | [D,D]2 [D,D] [D,D]2 [D,D] | [G,D]6 | %4
w: ~ ~ ~ ~|~ ~ ~ ~|~ ~ ~ ~|~|
 [G,D]2 [G,D] [G,D]2 [G,D] | [C,C]2 [C,C] !fermata![C,C]2 [C,C] | [D,B,]2 [D,B,] [D,D]2 [D,C] | %7
w: ~ ~ ~ ~|~ ~ ~ ~|~ ~ ~ ~|
 [G,B,]6 || D3 D3 G, | [D,D]2 [D,D] [D,D]3 | [D,D]2 [D,D] ([C,A,][B,,G,])[A,,F,] | [G,,G,]6 | %12
w: ~|~ ~ ~|* paid it|all. * * * *||
 [G,D]2 [G,D] [G,D]2 [G,D] | [C,C]2 [C,G,] !fermata![C,G,]2 [C,C] | [D,B,]2 [D,B,] [D,D]2 [D,C] | %15
w: |||
 [G,,B,]6 |] %16
w: |
V:4
 x6 | x6 | x6 | x6 | x6 | x6 | x6 | x6 || G,2 G, G,2 x2 | x6 | x6 | x6 | x6 | x6 | x6 | x6 |] %16

